modules/hawcons-filled/icons/icon-88-document-file-c.svg

<?xml version="1.0" encoding="UTF-8" standalone="no"?>
<svg width="32px" height="32px" viewBox="0 0 32 32" version="1.1" xmlns="http://www.w3.org/2000/svg" xmlns:xlink="http://www.w3.org/1999/xlink" xmlns:sketch="http://www.bohemiancoding.com/sketch/ns">
    <!-- Generator: Sketch 3.0.3 (7891) - http://www.bohemiancoding.com/sketch -->
    <title>icon 88 document file c</title>
    <desc>Created with Sketch.</desc>
    <defs></defs>
    <g id="Page-1" stroke="none" stroke-width="1" fill="none" fill-rule="evenodd" sketch:type="MSPage">
        <g id="icon-88-document-file-c" sketch:type="MSArtboardGroup" fill="#929292">
            <path d="M21,26 L21,28.0025781 C21,29.1090746 20.1057238,30 19.0025781,30 L3.99742191,30 C2.89092539,30 2,29.1012878 2,27.9926701 L2,5.00732994 C2,3.89833832 2.8992496,3 4.0085302,3 L14,3 L14,9.00189865 C14,10.1132936 14.8980806,11 16.0059191,11 L21,11 L21,13 L11.0068483,13 C9.34621185,13 8,14.3422643 8,15.9987856 L8,23.0012144 C8,24.6573979 9.33599155,26 11.0068483,26 L21,26 L21,26 Z M15,3 L15,8.99707067 C15,9.55097324 15.4509752,10 15.990778,10 L21,10 L15,3 L15,3 Z M10.9945615,14 C9.89299558,14 9,14.9001762 9,15.992017 L9,23.007983 C9,24.1081436 9.90234375,25 10.9945615,25 L28.0054385,25 C29.1070044,25 30,24.0998238 30,23.007983 L30,15.992017 C30,14.8918564 29.0976562,14 28.0054385,14 L10.9945615,14 L10.9945615,14 Z M21.9999916,21 C21.9968339,22.1165689 21.1004316,23 19.9951185,23 L19.0048815,23 C17.8938998,23 17,22.1019194 17,20.9940809 L17,18.0059191 C17,16.8865548 17.897616,16 19.0048815,16 L19.9951185,16 C21.1041209,16 21.9968142,16.8948834 21.9999915,18 L21,18 C21,17.4476291 20.5573397,17 20.0010434,17 L18.9989566,17 C18.4472481,17 18,17.4437166 18,17.9998075 L18,21.0001925 C18,21.5523709 18.4426603,22 18.9989566,22 L20.0010434,22 C20.5527519,22 21,21.5562834 21,21.0001925 L21.9999923,21 L21.9999916,21 L21.9999916,21 Z" id="document-file-c" sketch:type="MSShapeGroup"></path>
        </g>
    </g>
</svg>

<svg width="32" height="32" xmlns="http://www.w3.org/2000/svg"><path d="M21 26v2.003A1.995 1.995 0 0 1 19.003 30H3.997A2 2 0 0 1 2 27.993V5.007C2 3.898 2.9 3 4.009 3H14v6.002c0 1.111.898 1.998 2.006 1.998H21v2h-9.993A3.003 3.003 0 0 0 8 15.999V23A2.996 2.996 0 0 0 11.007 26H21zM15 3v5.997c0 .554.451 1.003.99 1.003H21l-6-7zm-4.005 11C9.893 14 9 14.9 9 15.992v7.016A2 2 0 0 0 10.995 25h17.01C29.107 25 30 24.1 30 23.008v-7.016A2 2 0 0 0 28.005 14h-17.01zM22 21c-.003 1.117-.9 2-2.005 2h-.99A2.003 2.003 0 0 1 17 20.994v-2.988c0-1.12.898-2.006 2.005-2.006h.99c1.11 0 2.002.895 2.005 2h-1c0-.552-.443-1-.999-1h-1.002A.997.997 0 0 0 18 18v3c0 .552.443 1 .999 1h1.002A.997.997 0 0 0 21 21h1z" fill="#929292" fill-rule="evenodd"/></svg>
